remix/Document/draft-line.svg

<svg viewBox="0 0 24 24" fill="currentColor" xmlns="http://www.w3.org/2000/svg"><path d="M20 2C20.5523 2 21 2.44772 21 3V6.757L19 8.757V4H5V20H19V17.242L21 15.242V21C21 21.5523 20.5523 22 20 22H4C3.44772 22 3 21.5523 3 21V3C3 2.44772 3.44772 2 4 2H20ZM21.7782 8.80761L23.1924 10.2218L15.4142 18L13.9979 17.9979L14 16.5858L21.7782 8.80761ZM13 12V14H8V12H13ZM16 8V10H8V8H16Z"/></svg>

<svg viewBox="0 0 24 24" xmlns="http://www.w3.org/2000/svg"><path fill="none" d="M0 0h24v24H0Z"/><path d="M20 2c.55 0 1 .44 1 1v3.75l-2 2V3.99H5v16h14v-2.76l2-2v5.75c0 .55-.45 1-1 1H4c-.552 0-1-.45-1-1v-18c0-.552.44-1 1-1h16Zm1.77 6.808l1.41 1.41 -7.78 7.77 -1.42-.01 0-1.42 7.77-7.78ZM12.99 12v2h-5v-2h5Zm3-4v2h-8V8h8Z"/></svg>
